config/includes.chroot/usr/share/icons/Tela-circle/scalable/mimetypes/x-office-spreadsheet.svg

<svg width="64" height="64" version="1.1" viewBox="0 0 16.933 16.933" xmlns="http://www.w3.org/2000/svg">
 <defs>
  <linearGradient id="a" x1="49.571" x2="51.714" y1="52.714" y2="54.857" gradientTransform="matrix(2.3333,0,0,2.3333,-68.667,-72.001)" gradientUnits="userSpaceOnUse">
   <stop offset="0"/>
   <stop stop-opacity="0" offset="1"/>
  </linearGradient>
 </defs>
 <g transform="scale(.26458)">
  <rect x="8" y="4" width="48" height="56" ry="5" fill="#4caf50" style="paint-order:stroke fill markers"/>
  <path d="m56 46-14 14h9c2.77 0 5-2.23 5-5z" fill="url(#a)" fill-rule="evenodd" opacity=".15" stroke-width="8.8191" style="paint-order:stroke fill markers"/>
 </g>
 <path d="m5.2916 13.229h6.3499v-5.2916h-6.3499zm0.52916-4.7624h1.0583v1.0583h-1.0583zm1.5875 0h3.7041v1.0583h-3.7041zm-1.5875 1.5875h1.0583v1.0583h-1.0583zm1.5875 0h3.7041v1.0583h-3.7041zm-1.5875 1.5875h1.0583v1.0583h-1.0583zm1.5875 0h3.7041v1.0583h-3.7041z" enable-background="new" fill="#fff"/>
</svg>

<svg width="64" height="64" viewBox="0 0 16.933 16.933" xmlns="http://www.w3.org/2000/svg"><defs><linearGradient id="a" x1="49.571" x2="51.714" y1="52.714" y2="54.857" gradientTransform="translate(-68.667 -72.001) scale(2.3333)" gradientUnits="userSpaceOnUse"><stop offset="0"/><stop stop-opacity="0" offset="1"/></linearGradient></defs><g transform="scale(.26458)"><rect x="8" y="4" width="48" height="56" ry="5" fill="#4caf50" style="paint-order:stroke fill markers"/><path d="M56 46 42 60h9c2.77 0 5-2.23 5-5z" fill="url(#a)" fill-rule="evenodd" opacity=".15" style="paint-order:stroke fill markers"/></g><path d="M5.292 13.229h6.35V7.937h-6.35zm.529-4.762h1.058v1.058H5.821zm1.587 0h3.704v1.058H7.408zm-1.587 1.587h1.058v1.058H5.821zm1.587 0h3.704v1.058H7.408zm-1.587 1.588h1.058V12.7H5.821zm1.587 0h3.704V12.7H7.408z" fill="#fff"/></svg>
